findly-builder/apps/searchassist/src/assets/icons/resultTemplate/carrotup.svg

<svg width="10" height="6" viewBox="0 0 10 6" fill="none" xmlns="http://www.w3.org/2000/svg">
<path fill-rule="evenodd" clip-rule="evenodd" d="M5.36437 5.14949C5.17497 5.33837 4.87481 5.34948 4.67239 5.18282L4.63563 5.14949L0.150927 0.877265C-0.0503091 0.676579 -0.0503091 0.351202 0.150927 0.150515C0.340326 -0.0383664 0.64048 -0.0494773 0.842909 0.117183L0.879668 0.150515L5 4.05928L9.12033 0.150515C9.30973 -0.0383664 9.60988 -0.0494773 9.81231 0.117183L9.84907 0.150515C10.0385 0.339397 10.0496 0.638731 9.8825 0.840607L9.84907 0.877265L5.36437 5.14949Z" fill="#5F6368"/>
</svg>

<svg width="10" height="6" fill="none" xmlns="http://www.w3.org/2000/svg"><path fill-rule="evenodd" clip-rule="evenodd" d="M5.364 5.15a.517.517 0 0 1-.692.033l-.036-.034L.15.877a.513.513 0 0 1 0-.726c.19-.19.49-.2.692-.034L.88.151 5 4.059 9.12.151c.19-.19.49-.2.692-.034l.037.034c.19.188.2.488.034.69l-.034.036L5.364 5.15Z" fill="#5F6368"/></svg>
